icons/svgs/arrow-left-from-line-outline.svg

<svg width="24" height="24" viewBox="0 0 24 24" fill="none" xmlns="http://www.w3.org/2000/svg">
<path d="M3.52344 11.3359L8.83594 6.33594C9.22656 5.98438 9.8125 5.98438 10.1641 6.375C10.5156 6.76562 10.5156 7.35156 10.125 7.70312L6.53125 11.0625H9.8125H14.8125C15.3203 11.0625 15.75 11.4922 15.75 12C15.75 12.5469 15.3203 12.9375 14.8125 12.9375H9.8125H6.53125L10.125 16.3359C10.5156 16.6875 10.5156 17.2734 10.1641 17.6641C9.8125 18.0547 9.22656 18.0547 8.83594 17.7031L3.52344 12.7031C3.32812 12.5078 3.25 12.2734 3.25 12C3.25 11.7656 3.32812 11.5312 3.52344 11.3359ZM18.875 18.5625V5.4375C18.875 4.92969 19.2656 4.5 19.8125 4.5C20.3203 4.5 20.75 4.92969 20.75 5.4375V18.5625C20.75 19.1094 20.3203 19.5 19.8125 19.5C19.2656 19.5 18.875 19.1094 18.875 18.5625Z" fill="black"/>
</svg>

<svg xmlns="http://www.w3.org/2000/svg" width="24" height="24" fill="currentColor" class="icon-arrow-left-from-line-outline" viewBox="0 0 24 24">
  <mask id="a" width="18" height="16" x="3" y="4" maskUnits="userSpaceOnUse" style="mask-type:alpha">
    <path d="m3.523 11.336 5.313-5c.39-.352.976-.352 1.328.039s.352.977-.039 1.328l-3.594 3.36h8.282a.95.95 0 0 1 .937.937c0 .547-.43.938-.937.938H6.53l3.594 3.398c.39.352.39.937.04 1.328-.352.39-.938.39-1.33.04l-5.312-5c-.195-.196-.273-.43-.273-.704 0-.234.078-.469.273-.664m15.352 7.227V5.438c0-.508.39-.938.938-.938a.95.95 0 0 1 .937.938v13.125c0 .546-.43.937-.937.937-.547 0-.938-.39-.938-.937"/>
  </mask>
  <g mask="url(#a)">
    <path d="M0 0h24v24H0z"/>
  </g>
</svg>
